X:1
T:Bushes and Briars
M:4/4
L:1/4
K:Bb
 G| c c d c| B c- c d| e f gf/2-e/2| d3e/2-f/2| g(3f3.99999962500005/11.9999985000002f3.99999962500005/11.9999985000002e3.99999962500005/11.9999985000002f3.99999962500005/11.9999985000002e3.99999962500005/11.9999985000002d3.99999962500005/11.9999985000002 e d|\
 cd/2-B/2 G F/2F/2| G e d(3e3.99999962500005/11.9999985000002e3.99999962500005/11.9999985000002f3.99999962500005/11.9999985000002e3.99999962500005/11.9999985000002f3.99999962500005/11.9999985000002d3.99999962500005/11.9999985000002|\
 c3e/2-f/2| g(3f3.99999962500005/11.9999985000002f3.99999962500005/11.9999985000002e3.99999962500005/11.9999985000002f3.99999962500005/11.9999985000002e3.99999962500005/11.9999985000002d3.99999962500005/11.9999985000002 e d|\
 cd/2-B/2 G F/2F/2| G e d(3e3.99999962500005/11.9999985000002e3.99999962500005/11.9999985000002f3.99999962500005/11.9999985000002e3.99999962500005/11.9999985000002f3.99999962500005/11.9999985000002d3.99999962500005/11.9999985000002|\
 c3||
